X:104
T:
N:En värs ur en bekant visa;
S:efter Elisabet Olofsdotter, Flors i Burs.
M:C
L:1/8
K:F
C|F2 F> A c3 A|D> E F G A2 G2|
w:I fjour da gikk ja mä gos-sa-na pa vä-gen,
C2 (EG) B3 d|c> B A G A2 HF> B|
w:grann, grann,_ grann, mä gos-sa-na pa vä-gen. I
A> G A B c3 E|F> E F D A2 G2|
w:ar da ha ja bläit så ne-ru u så trä-gen.
C2 EG B3 d|c> B A G A2 HF> F|
w:Aj, aj,_ aj! Så ne-ru u så trä-gen. Män
B> B d B (d>c) c A|c> B G E F3:|
w:akk va dä va rou--lit dän täi-den ja va moi!
